calendar-check-outline.svg

<svg fill="currentColor" viewBox="0 0 24 24"><path d="M19 3h-1V1h-2v2H8V1H6v2H5c-1.1 0-2 .9-2 2v14a2 2 0 0 0 2 2h14c1.11 0 2-.89 2-2V5a2 2 0 0 0-2-2m0 16H5V9h14zM5 7V5h14v2zm5.56 10.46 5.94-5.93-1.07-1.06-4.87 4.87-2.11-2.11-1.06 1.06z"/></svg>

<svg  viewBox="0 0 24 24" fill="currentColor"><path  d="M19 3H18V1H16V3H8V1H6V3H5C3.9 3 3 3.9 3 5V19C3 20.11 3.9 21 5 21H19C20.11 21 21 20.11 21 19V5C21 3.9 20.11 3 19 3M19 19H5V9H19V19M5 7V5H19V7H5M10.56 17.46L16.5 11.53L15.43 10.47L10.56 15.34L8.45 13.23L7.39 14.29L10.56 17.46Z"/></svg>
